icons/arrow-circle-left.svg

<svg width="24" height="24" viewBox="0 0 24 24" fill="none" xmlns="http://www.w3.org/2000/svg">
<path fill-rule="evenodd" clip-rule="evenodd" d="M12 20.25C16.5563 20.25 20.25 16.5563 20.25 12C20.25 7.44365 16.5564 3.75 12 3.75C7.44365 3.75 3.75 7.44365 3.75 12C3.75 16.5563 7.44365 20.25 12 20.25ZM21.75 12C21.75 17.3848 17.3848 21.75 12 21.75C6.61522 21.75 2.25 17.3848 2.25 12C2.25 6.61522 6.61523 2.25 12 2.25C17.3848 2.25 21.75 6.61522 21.75 12Z" fill="black"/>
<path fill-rule="evenodd" clip-rule="evenodd" d="M15.75 12C15.75 12.4142 15.4142 12.75 15 12.75L8.4 12.75C7.98579 12.75 7.65 12.4142 7.65 12C7.65 11.5858 7.98579 11.25 8.4 11.25L15 11.25C15.4142 11.25 15.75 11.5858 15.75 12Z" fill="black"/>
<path fill-rule="evenodd" clip-rule="evenodd" d="M11.5303 15.5303C11.2374 15.8232 10.7626 15.8232 10.4697 15.5303L7.96967 13.0303C7.47678 12.5374 7.47678 11.7626 7.96967 11.2697L10.4697 8.76967C10.7626 8.47678 11.2374 8.47678 11.5303 8.76967C11.8232 9.06256 11.8232 9.53744 11.5303 9.83033L9.21066 12.15L11.5303 14.4697C11.8232 14.7626 11.8232 15.2374 11.5303 15.5303Z" fill="black"/>
</svg>

<svg xmlns="http://www.w3.org/2000/svg" fill="none" viewBox="0 0 24 24">
  <path fill="#000" fill-rule="evenodd" d="M12 20.25a8.25 8.25 0 1 0 0-16.5 8.25 8.25 0 0 0 0 16.5ZM21.75 12c0 5.385-4.365 9.75-9.75 9.75S2.25 17.385 2.25 12 6.615 2.25 12 2.25s9.75 4.365 9.75 9.75Z" clip-rule="evenodd"/>
  <path fill="#000" fill-rule="evenodd" d="M15.75 12a.75.75 0 0 1-.75.75H8.4a.75.75 0 0 1 0-1.5H15a.75.75 0 0 1 .75.75Z" clip-rule="evenodd"/>
  <path fill="#000" fill-rule="evenodd" d="M11.53 15.53a.75.75 0 0 1-1.06 0l-2.5-2.5a1.233 1.233 0 0 1 0-1.76l2.5-2.5a.75.75 0 1 1 1.06 1.06l-2.32 2.32 2.32 2.32a.75.75 0 0 1 0 1.06Z" clip-rule="evenodd"/>
</svg>
